X:4
T:The Miller o' Hirn
C: J. Scott Skinner
R: strathspey
M:4/4
L:1/16
Z: Jason R. Fruit <JasonFruit@gmail.com>
K:D
(!p!D3!tenuto!E) (FB3) AF3 "^2 down"(D4 | B,3)E GFED !downbow!C("_(~ in ms.)"A,3 {B,A,^G,}A,3C) | (D3!tenuto!E) (FB3) (AF3) "^3 down [sic]"(D4 | B,3)D (CA3) F(D3 !tenuto!D4) :|
(!ff!A3!tenuto!G) (Fd3) B(G3 !turn!G4) | (!>!B3!tenuto!A) (^Ge3) !downbow!c!upbow!A3 (!upbow!A3B) | (A3!tenuto!G) (Fd3) B3A (GB3) | c3B (Aa3) !downbow!f!upbow!d3 (!upbow!!turn!d3B) |
(A3!tenuto!G) (Fd3 B)(G3 !turn!G4) | (B3!tenuto!A) (^Ge3 c)!upbow!A3 (!upbow!A3c) | \
L: 1/8
(3!>!dAB (3!>!!<(!cde (3!>!fde (3!>!fg!<)!a | (3!>(!!>!bag (3!>!fed (3 cB!>)!A (3GFE || "^Last."!fermata![dAF]4 |]

